components/2.0/icon/icons/icon-envelope-22px.svg

<?xml version="1.0" encoding="UTF-8" standalone="no"?>
<svg width="22px" height="22px" viewBox="0 0 22 22" version="1.1" xmlns="http://www.w3.org/2000/svg" xmlns:xlink="http://www.w3.org/1999/xlink" xmlns:sketch="http://www.bohemiancoding.com/sketch/ns">
    <!-- Generator: Sketch 3.4.4 (17249) - http://www.bohemiancoding.com/sketch -->
    <title>icon-envelope-22px</title>
    <desc>Created with Sketch.</desc>
    <defs></defs>
    <g id="22px" stroke="none" stroke-width="1" fill="none" fill-rule="evenodd" sketch:type="MSPage">
        <g id="icon-envelope-22px" sketch:type="MSArtboardGroup" fill="#3D4752">
            <path d="M19,3 L3,3 C1.9,3 1,3.9 1,5 L1,17 C1,18.1 1.9,19 3,19 L19,19 C20.1,19 21,18.1 21,17 L21,5 C21,3.9 20.1,3 19,3 L19,3 Z M19,5 L19,7.1 L11,12.4 L3,7.1 L3,5 L19,5 L19,5 Z M3,17 L3,8.3 L11,13.6 L19,8.3 L19,17 L3,17 L3,17 Z" id="Shape" sketch:type="MSShapeGroup"></path>
        </g>
    </g>
</svg>

<svg width="22" height="22" xmlns="http://www.w3.org/2000/svg"><path d="M19 3H3C2 3 1 4 1 5v12c0 1 1 2 2 2h16c1 0 2-1 2-2V5c0-1-1-2-2-2zm0 2v2l-8 5.4L3 7V5h16zM3 17V8.3l8 5.3 8-5.3V17H3z" fill="#3D4752" fill-rule="evenodd"/></svg>
